X:702
T:Rocky Road to Dublin, The
M:9/8
R:SlipJig
L:1/8
Z:O'Neill's
K:G
efe d2B A2A|~E3 A2A Bcd|efe d2B A2c|B2A G2A Bcd:|\
e2a a2f ~g3|e2a a2A Bcd|e2a a2f g2e|d2B ~G3 Bcd|\
e2a a2f g2d|e2a ~a3 Bcd|efg fga gfe|~d3 G2A Bcd|\
ecA ecA A2a|ecA ecA Bcd|ecA ecA a2c|~d3 G2A Bcd|\
ecA ecA A2a|ecA ecA ~B3|efg fga gfe|d2B G2A Bcd||
